src/images/single-assets/syrupUSDC.svg

<svg width="37" height="37" viewBox="0 0 37 37" fill="none" xmlns="http://www.w3.org/2000/svg">
<path d="M36 18.5C36 28.1999 28.1999 36 18.5 36C8.80014 36 1 28.1999 1 18.5C1 8.80014 8.80014 1 18.5 1C28.1999 1 36 8.80014 36 18.5Z" fill="#FC8340" stroke="white" stroke-width="2"/>
<path d="M22.5877 20.5735C22.5877 18.3285 21.2407 17.5588 18.5467 17.2382C16.6224 16.9815 16.2376 16.4684 16.2376 15.5703C16.2376 14.6723 16.879 14.0951 18.1618 14.0951C19.3164 14.0951 19.9579 14.48 20.2785 15.4421C20.3427 15.6345 20.5352 15.7628 20.7276 15.7628H21.7538C22.0104 15.7628 22.2028 15.5703 22.2028 15.3139V15.2497C21.9462 13.8385 20.7916 12.7481 19.3164 12.6199V11.0805C19.3164 10.8239 19.124 10.6314 18.8033 10.5672H17.8412C17.5846 10.5672 17.3921 10.7597 17.3279 11.0805V12.5557C15.4037 12.8123 14.1851 14.0951 14.1851 15.6987C14.1851 17.8154 15.4679 18.6492 18.1618 18.97C19.9579 19.2907 20.5352 19.6755 20.5352 20.7018C20.5352 21.7282 19.6371 22.4337 18.4185 22.4337C16.7507 22.4337 16.1734 21.728 15.9809 20.7659C15.9169 20.5094 15.7245 20.381 15.5321 20.381H14.4415C14.1851 20.381 13.9926 20.5735 13.9926 20.8301V20.8943C14.2491 22.4977 15.2754 23.6523 17.3921 23.9731V25.5125C17.3921 25.769 17.5846 25.9614 17.9052 26.0256H18.8674C19.124 26.0256 19.3164 25.8332 19.3806 25.5125V23.9731C21.3049 23.6523 22.5877 22.3053 22.5877 20.5735Z" fill="white"/>
<path d="M15.6414 27.3152C10.6383 25.5194 8.07253 19.939 9.93276 14.9999C10.8949 12.3059 13.0116 10.2534 15.6414 9.29127C15.898 9.16304 16.0262 8.97061 16.0262 8.6498V7.75186C16.0262 7.49524 15.898 7.30281 15.6414 7.23877C15.5772 7.23877 15.449 7.23877 15.3848 7.30281C9.29128 9.22708 5.95583 15.7056 7.8801 21.799C9.03466 25.391 11.7928 28.1491 15.3848 29.3037C15.6414 29.4319 15.898 29.3037 15.962 29.0471C16.0262 28.983 16.0262 28.9188 16.0262 28.7906V27.8925C16.0262 27.7001 15.8338 27.4436 15.6414 27.3152ZM22.4405 7.30281C22.1839 7.17458 21.9273 7.30281 21.8632 7.55943C21.7991 7.62362 21.7991 7.68766 21.7991 7.81605V8.71399C21.7991 8.97061 21.9915 9.22708 22.1839 9.35547C27.187 11.1514 29.7528 16.7317 27.8925 21.6708C26.9304 24.3648 24.8137 26.4173 22.1839 27.3794C21.9273 27.5077 21.7991 27.7001 21.7991 28.0209V28.9188C21.7991 29.1755 21.9273 29.3679 22.1839 29.4319C22.2481 29.4319 22.3763 29.4319 22.4405 29.3679C28.534 27.4436 31.8695 20.9651 29.9452 14.8717C28.7906 11.2155 25.9683 8.45737 22.4405 7.30281Z" fill="white"/>
</svg>

<svg xmlns="http://www.w3.org/2000/svg" width="37" height="37" fill="none"><path fill="#FC8340" stroke="#fff" stroke-width="2" d="M36 18.5C36 28.2 28.2 36 18.5 36S1 28.2 1 18.5 8.8 1 18.5 1 36 8.8 36 18.5Z"/><path fill="#fff" d="M22.588 20.574c0-2.246-1.347-3.015-4.041-3.336-1.925-.256-2.31-.77-2.31-1.668s.642-1.475 1.925-1.475c1.154 0 1.796.385 2.117 1.347.064.192.256.32.449.32h1.026a.44.44 0 0 0 .449-.448v-.064a3.204 3.204 0 0 0-2.887-2.63v-1.54c0-.256-.192-.449-.513-.513h-.962c-.256 0-.449.193-.513.514v1.475c-1.924.256-3.143 1.54-3.143 3.143 0 2.116 1.283 2.95 3.977 3.271 1.796.32 2.373.706 2.373 1.732s-.898 1.732-2.116 1.732c-1.668 0-2.246-.706-2.438-1.668-.064-.257-.256-.385-.449-.385h-1.09a.44.44 0 0 0-.45.45v.063c.257 1.604 1.283 2.758 3.4 3.08v1.538c0 .257.193.45.513.514h.962c.257 0 .45-.193.514-.514v-1.539c1.924-.32 3.207-1.668 3.207-3.4"/><path fill="#fff" d="M15.641 27.315C10.638 25.52 8.073 19.94 9.933 15c.962-2.694 3.079-4.747 5.708-5.709.257-.128.385-.32.385-.641v-.898c0-.257-.128-.45-.385-.513-.064 0-.192 0-.256.064-6.094 1.924-9.43 8.403-7.505 14.496a11.54 11.54 0 0 0 7.505 7.505c.256.128.513 0 .577-.257.064-.064.064-.128.064-.256v-.899c0-.192-.192-.448-.385-.577m6.8-20.012c-.257-.128-.514 0-.578.256-.064.065-.064.129-.064.257v.898c0 .257.192.513.385.641 5.003 1.796 7.569 7.377 5.708 12.316-.962 2.694-3.078 4.746-5.708 5.708-.257.129-.385.321-.385.642v.898c0 .256.128.449.385.513.064 0 .192 0 .256-.064 6.094-1.924 9.43-8.403 7.505-14.496a11.63 11.63 0 0 0-7.504-7.57"/></svg>
